X:1
T: The Man who died and rose again
C:
R:Jig
Q:180
K:G
M:6/8
L:1/16
G2B2A2 G4A2|B2G2e2 e4d2|G2B2A2 G4B2|A2F2D2 A2F2D2|G2B2A2 G4A2|B2A2B2 d2c2d2|e2d2B2 e2d2B2|A2F2D2 D2F2D2|
G2B2A2 G4A2|B2G2e2 e4d2|G2B2A2 G4B2|A2F2D2 A2F2D2|G2B2A2 G4A2|B2A2B2 d2c2d2|e2d2B2 e2d2B2|A2F2D2 D2F2D2|
g2e2f2 g4a2|b2g2e2 e4f2|g2e2f2 g4b2|a2f2d2 d2c2d2|G2F2G2 A2G2A2|B2A2B2 d2c2d2|e2d2B2 e2d2B2|A2F2D2 D2F2D2|
g2e2f2 g4a2|b2g2e2 e4f2|g2e2f2 g4b2|a2f2d2 d2c2d2|G2F2G2 A2G2A2|B2A2B2 d2c2d2|e2d2B2 e2d2B2|A2F2D2 D2F2D2||
